Yaru++/emblems/symbolic/emblem-videos-symbolic.svg

<svg height="16" width="16" xmlns="http://www.w3.org/2000/svg"><path d="m1 2v13h1v-1h1v1h11v-1h1v1h1v-13h-1v1h-1v-1h-11v1h-1v-1zm3 1h9v5h-9zm-2 1h1v1h-1zm12 0h1v1h-1zm-12 2h1v1h-1zm12 0h1v1h-1zm-12 2h1v1h-1zm12 0h1v1h-1zm-10 1h9v5h-9zm-2 1h1v1h-1zm12 0h1v1h-1zm-12 2h1v1h-1zm12 0h1v1h-1z" fill="#808080"/></svg>

<svg height="16" width="16" xmlns="http://www.w3.org/2000/svg">
    <path d="M1 2v13h1v-1h1v1h11v-1h1v1h1V2h-1v1h-1V2H3v1H2V2zm3 1h9v5H4zM2 4h1v1H2zm12 0h1v1h-1zM2 6h1v1H2zm12 0h1v1h-1zM2 8h1v1H2zm12 0h1v1h-1zM4 9h9v5H4zm-2 1h1v1H2zm12 0h1v1h-1zM2 12h1v1H2zm12 0h1v1h-1z" style="marker:none" color="#000" overflow="visible" fill="gray"/>
</svg>
